X:631
%%etbk:tnset id:373,pos:1,rep:3x,ant:
%%etbk:pldat 2015-07-30T18:06,2015-07-22T16:07,2015-06-26T16:47,2015-06-17T15:57,2015-06-16T15:38,2015-05-07T18:31,2015-04-16T18:26,2015-04-15T15:47,2015-04-13T18:28,2015-04-12T10:11,2015-04-11T13:50,2015-03-19T18:14,2015-03-18T17:03,2015-03-16T18:36,2015-03-15T14:13,2015-03-11T15:57,2015-03-10T17:30,2015-03-06T16:12,2015-03-05T18:23,2015-03-04T15:43,2015-02-22T14:51,2015-02-21T16:07,2015-02-19T18:21,2015-02-18T15:19,2015-02-16T18:57,2015-02-14T13:51,2015-02-13T18:23,2015-02-12T19:12,2015-02-11T15:42,2015-02-10T16:18,2015-02-09T19:19
T:Trip To Trim
H: Created 2015-02-09 /  Last Modified 2015-02-10
Z: Piano Box Version by Martin Fleischmann
C:Klaus Pfister
L:1/8
M:4/4
K:Gmaj
P: A B C A B C A               % play the parts in this order
P:A
%%score (M1) (M2) 
V:M1  clef=treble  
V:M2  clef=treble   
V:M3  clef=treble
%            End of header, start of tune body:
[V:M1] |:"em" BEGF EGBc- | "C"cAGF- "D"FGAc |"em" BEGF EGBA- |"am" AcBA "bm"GFGA |
[V:M2] |: zB,[EG][EG] zB,[EG][EG]| zC[EG][EG] zB,[DF][DF] |zB,[EG][EG] zB,[EG][EG] |z-C[EA][EA] zB,[DF][DF] |
[V:M3] |: z8| z8 |z8 |z8 |
[V:M1]"em" BEGF EGBc- | "C"cAGF- "D"FGAc |"em" BEGF EGBA-O |1 "am"A3 B "bm"dcBA :|2"am" A4 z"bm" Bef || 
[V:M2] zB,[EG][EG] zB,[EG][EG]| z-C[EG][EG] zB,[DF][DF] |zB,[EG][EG] zB,[EG][EG]  |1 z8 :|2z8|| 
[V:M3] z8| z8 |z8  |1 z8 :|2z8|| 
P:B
[V:M1]|:"em" g2 B2"bm" fBfe- | "em"e B2 b agfe | "bm" !turn!f3 e fgab- | bc'ba bagf |
[V:M2] |: zB,[EG][EG] zB,[DF][DF]| zB,[EG][EG] zB,[EG][EG] |zB,[DF][DF] zB,[DF][DF] |zB,[DF][DF] zB,[DF][DF] |
[V:M3] |: z8| z8 |z8 |z8 |
[V:M1]"em" !turn!g3 B"bm" fBf"em"e- | e B2 a gfed |1 "C" !turn!e3 B efgf- | "bm"f4 z Bef :|2"C" !turn!e3 g"bm" fede- || "em"e3 d edcB 
[V:M2] zB,[EG][EG] zB,[DF][DF]| zB,[EG][EG] zB,[EG][EG]|1 zC[EG][EG] zC[EG][EG]| zB,[DF][DF] zB,[DF][DF] :|z8|| z8
[V:M3]z8| z8|1 z8| z8 :|z8|| z8
P:C
[V:M1]|:"am" A2 cA BAGE | AcAB "bm"zAGE |"am" A2 cA BAGE | AcAB "bm"cBAG |
[V:M2]|:"am" A2 eA fAeG | AeAf "bm"zcBG |"am" A2 eA fAeG | AeAf "bm"edcB |
[V:M3]|: A,/A,/A,A,C EECA, | z8 |z8 | z8 |
[V:M1] "am" A2 cA BAGE |AcAB "bm"zAGE |"am" A2 cA BAGE |1 AcAB "bm"cBAG :|2 AcA"bm"B z4 |
[V:M2]"am" A2 eA fAeG | AeAf  "bm"zcBG |"am" A2 eA fAeG |1 AeA"bm"f edcB :|2 AeA"bm"f z4 ||
[V:M3]z8 | z8 |z8 |1 z8 :|2 z8 ||
[V:M1]"am"O A4"Bm" z FGA |"em" B2 GF EGB"am"!fermata![Acf] |]
[V:M2]z8 |z8 |]
[V:M3]z8 |z8 |]


